resources/svg/anchor-o.svg

<svg width="15" height="15" viewBox="0 0 15 15" fill="none" xmlns="http://www.w3.org/2000/svg">
<path d="M7.5 4.49744C8.604 4.49744 9.5 3.60206 9.5 2.49878C9.5 1.39549 8.604 0.5 7.5 0.5C6.396 0.5 5.5 1.39549 5.5 2.49878C5.5 3.60206 6.396 4.49744 7.5 4.49744ZM7.5 4.49744V14.4908M7.5 14.4908C3.634 14.4908 0.5 11.359 0.5 7.49548H2.5M7.5 14.4908C11.366 14.4908 14.5 11.359 14.5 7.49548H12.5" stroke="black" stroke-linecap="square"/>
</svg>

<svg viewBox="0 0 15 15" fill="none" xmlns="http://www.w3.org/2000/svg" fill="currentColor"><path d="M7.5 4.497a2 2 0 002-1.998 2 2 0 00-4 0 2 2 0 002 1.998zm0 0v9.994m0 0c-3.866 0-7-3.132-7-6.996h2m5 6.996c3.866 0 7-3.132 7-6.996h-2" stroke="currentColor" stroke-linecap="square"/></svg>
